X: 28737
T: My Friend Buddy
R: jig
M: 6/8
K: Gmajor
|:d|GAG G2 B|ded dBA|G2 G GAB|gag g2 b|
GAG G2 B|ded dBG|A2 A AB/c/d|e3 g2:|
|:[ac']|bag gdB|GAG G2 [gc']|bag gfg|abg a^ga|
[1 bag gdB|GAG G2 B|A2 A ABd|e3 g2:|
[2 bg/a/b af/g/a|gfe dBG|A2 A AB/c/d|e3 g2||

